icons/read-32.svg

<svg width="32" height="32" viewBox="0 0 32 32" fill="none" xmlns="http://www.w3.org/2000/svg">
<path fill-rule="evenodd" clip-rule="evenodd" d="M14.23 1.29886C15.323 0.658112 16.677 0.658113 17.77 1.29886L30.27 8.62644C31.3416 9.25463 32 10.4037 32 11.6459V24.5C32 26.433 30.433 28 28.5 28H3.5C1.567 28 0 26.433 0 24.5V11.6459C0 10.4037 0.658375 9.25462 1.72998 8.62644L14.23 1.29886ZM16.2529 3.88695C16.0967 3.79541 15.9033 3.79541 15.7471 3.88695L4.30922 10.5919L12.9343 15.5205C14.7863 14.2758 17.2138 14.2758 19.0657 15.5205L27.6908 10.5919L16.2529 3.88695ZM29 13.2991L21.626 17.5128L29 23.3067V13.2991ZM10.374 17.5128L3 13.2991V23.3067L10.374 17.5128ZM26.2994 25H5.70063L14.4554 18.1212C15.362 17.4089 16.638 17.4089 17.5446 18.1212L26.2994 25Z" fill="#24292F"/>
</svg>

<svg xmlns="http://www.w3.org/2000/svg" width="32" height="32" viewBox="0 0 32 32"><path fill-rule="evenodd" d="M14.23 1.299a3.5 3.5 0 013.54 0l12.5 7.327a3.5 3.5 0 011.73 3.02V24.5a3.5 3.5 0 01-3.5 3.5h-25A3.5 3.5 0 010 24.5V11.646a3.5 3.5 0 011.73-3.02L14.23 1.3zm2.023 2.588a.5.5 0 00-.506 0L4.31 10.592l8.625 4.928a5.5 5.5 0 016.132 0l8.625-4.928-11.438-6.705zM29 13.299l-7.374 4.214L29 23.307V13.299zm-18.626 4.214L3 13.299v10.008l7.374-5.794zM26.299 25H5.701l8.754-6.879a2.5 2.5 0 013.09 0L26.299 25z"/></svg>
